Newaita/actions/32/deep-history.svg

<svg height="32" viewBox="0 0 32 32" width="32" xmlns="http://www.w3.org/2000/svg"><g fill="#424242"><path d="m15.875 2.894531c-7.328125 0-13.230469 5.902344-13.230469 13.230469 0 5.699219 3.570313 10.535156 8.601563 12.40625v-2.878906c-3.53125-1.710938-5.953125-5.324219-5.953125-9.527344 0-5.863281 4.71875-10.582031 10.582031-10.582031 5.867188 0 10.585938 4.71875 10.585938 10.582031 0 1.40625-.269532 2.746094-.765626 3.96875h2.808594c.390625-1.25.601563-2.582031.601563-3.96875 0-7.328125-5.898438-13.230469-13.230469-13.230469zm0 0"/><path d="m15.214844 6.863281c-.367188 0-.660156.296875-.660156.664063v8.597656c0 .734375.589843 1.324219 1.320312 1.324219.734375 0 1.324219-.589844 1.324219-1.324219v-8.597656c0-.367188-.292969-.664063-.660157-.664063zm0 0"/><path d="m24.65625 13.09375c-.09375-.355469-.457031-.5625-.8125-.46875l-8.304688 2.226562c-.707031.191407-1.125.914063-.9375 1.621094.191407.707032.914063 1.125 1.621094.933594l8.308594-2.222656c.351562-.097656.5625-.457032.464844-.8125zm0 0"/><path d="m19.8125 21.421875c-.210938.003906-.421875.003906-.628906.003906-.472656-.007812-.917969.242188-1.15625.652344-.238282.410156-.238282.917969 0 1.328125.238281.410156.683594.660156 1.15625.652344 1.65625 0 3.15625.066406 3.992187.457031.832031.386719 1.308594.855469 1.308594 2.855469h-.007813v1.375c0 .363281.292969.660156.660157.660156h1.324219c.367187 0 .660156-.296875.660156-.660156v-1.375h-.003906c0-2.628906-1.179688-4.476563-2.828126-5.242188-1.441406-.675781-3.003906-.707031-4.476562-.707031zm0 0"/><path d="m19.183594 26.050781v-6.617187l-5.292969 3.308594zm0 0"/><path d="m19.8125 21.421875c-.210938.003906-.421875.003906-.628906.003906-.472656-.007812-.917969.242188-1.15625.652344-.238282.410156-.238282.917969 0 1.328125.238281.410156.683594.660156 1.15625.652344 1.65625 0 3.15625.066406 3.992187.457031.832031.386719 1.308594.855469 1.308594 2.855469h-.007813v1.375c0 .363281.292969.660156.660157.660156h1.324219c.367187 0 .660156-.296875.660156-.660156v-1.375h-.003906c0-2.628906-1.179688-4.476563-2.828126-5.242188-1.441406-.675781-3.003906-.707031-4.476562-.707031zm0 0"/></g></svg>

<?xml version="1.0" encoding="UTF-8"?>
<svg xmlns="http://www.w3.org/2000/svg" xmlns:xlink="http://www.w3.org/1999/xlink" width="32px" height="32px" viewBox="0 0 32 32" version="1.1">
<g id="surface1">
<path style=" stroke:none;fill-rule:nonzero;fill:rgb(25.882354%,25.882354%,25.882354%);fill-opacity:1;" d="M 15.875 2.894531 C 8.546875 2.894531 2.644531 8.796875 2.644531 16.125 C 2.644531 21.824219 6.214844 26.660156 11.246094 28.53125 L 11.246094 25.652344 C 7.714844 23.941406 5.292969 20.328125 5.292969 16.125 C 5.292969 10.261719 10.011719 5.542969 15.875 5.542969 C 21.742188 5.542969 26.460938 10.261719 26.460938 16.125 C 26.460938 17.53125 26.191406 18.871094 25.695312 20.09375 L 28.503906 20.09375 C 28.894531 18.84375 29.105469 17.511719 29.105469 16.125 C 29.105469 8.796875 23.207031 2.894531 15.875 2.894531 Z M 15.875 2.894531 "/>
<path style=" stroke:none;fill-rule:nonzero;fill:rgb(25.882354%,25.882354%,25.882354%);fill-opacity:1;" d="M 15.214844 6.863281 C 14.847656 6.863281 14.554688 7.160156 14.554688 7.527344 L 14.554688 16.125 C 14.554688 16.859375 15.144531 17.449219 15.875 17.449219 C 16.609375 17.449219 17.199219 16.859375 17.199219 16.125 L 17.199219 7.527344 C 17.199219 7.160156 16.90625 6.863281 16.539062 6.863281 Z M 15.214844 6.863281 "/>
<path style=" stroke:none;fill-rule:nonzero;fill:rgb(25.882354%,25.882354%,25.882354%);fill-opacity:1;" d="M 24.65625 13.09375 C 24.5625 12.738281 24.199219 12.53125 23.84375 12.625 L 15.539062 14.851562 C 14.832031 15.042969 14.414062 15.765625 14.601562 16.472656 C 14.792969 17.179688 15.515625 17.597656 16.222656 17.40625 L 24.53125 15.183594 C 24.882812 15.085938 25.09375 14.726562 24.996094 14.371094 Z M 24.65625 13.09375 "/>
<path style=" stroke:none;fill-rule:nonzero;fill:rgb(25.882354%,25.882354%,25.882354%);fill-opacity:1;" d="M 19.8125 21.421875 C 19.601562 21.425781 19.390625 21.425781 19.183594 21.425781 C 18.710938 21.417969 18.265625 21.667969 18.027344 22.078125 C 17.789062 22.488281 17.789062 22.996094 18.027344 23.40625 C 18.265625 23.816406 18.710938 24.066406 19.183594 24.058594 C 20.839844 24.058594 22.339844 24.125 23.175781 24.515625 C 24.007812 24.902344 24.484375 25.371094 24.484375 27.371094 L 24.476562 27.371094 L 24.476562 28.746094 C 24.476562 29.109375 24.769531 29.40625 25.136719 29.40625 L 26.460938 29.40625 C 26.828125 29.40625 27.121094 29.109375 27.121094 28.746094 L 27.121094 27.371094 L 27.117188 27.371094 C 27.117188 24.742188 25.9375 22.894531 24.289062 22.128906 C 22.847656 21.453125 21.285156 21.421875 19.8125 21.421875 Z M 19.8125 21.421875 "/>
<path style=" stroke:none;fill-rule:nonzero;fill:rgb(25.882354%,25.882354%,25.882354%);fill-opacity:1;" d="M 19.183594 26.050781 L 19.183594 19.433594 L 13.890625 22.742188 Z M 19.183594 26.050781 "/>
<path style=" stroke:none;fill-rule:nonzero;fill:rgb(25.882354%,25.882354%,25.882354%);fill-opacity:1;" d="M 19.8125 21.421875 C 19.601562 21.425781 19.390625 21.425781 19.183594 21.425781 C 18.710938 21.417969 18.265625 21.667969 18.027344 22.078125 C 17.789062 22.488281 17.789062 22.996094 18.027344 23.40625 C 18.265625 23.816406 18.710938 24.066406 19.183594 24.058594 C 20.839844 24.058594 22.339844 24.125 23.175781 24.515625 C 24.007812 24.902344 24.484375 25.371094 24.484375 27.371094 L 24.476562 27.371094 L 24.476562 28.746094 C 24.476562 29.109375 24.769531 29.40625 25.136719 29.40625 L 26.460938 29.40625 C 26.828125 29.40625 27.121094 29.109375 27.121094 28.746094 L 27.121094 27.371094 L 27.117188 27.371094 C 27.117188 24.742188 25.9375 22.894531 24.289062 22.128906 C 22.847656 21.453125 21.285156 21.421875 19.8125 21.421875 Z M 19.8125 21.421875 "/>
</g>
</svg>
